usr/share/icons/biglinux-icons-material-dark/symbolic/actions/snap-nodes-smooth.svg

<svg xmlns="http://www.w3.org/2000/svg" viewBox="0 0 16 16">
  <defs id="defs3051">
    <style type="text/css" id="current-color-scheme">
      .ColorScheme-Text {
        color:#dedede;
      }
      .ColorScheme-Highlight {
        color:#3daee9;
      }
      </style>
  </defs>
  <path 
        style="fill:currentColor;fill-opacity:1;stroke:none"
        d="M 8 2.0253906 A 5.500002 5.500015 0 0 0 3.0273438 7 L 4 7 L 4.03125 7 A 4.5 4.5 0 0 1 8 3.0332031 L 8 3 L 8 2.0253906 z M 9 2.0273438 L 9 3 L 9 3.03125 A 4.5 4.5 0 0 1 12.966797 7 L 13 7 L 13.974609 7 A 5.500002 5.500015 0 0 0 9 2.0273438 z M 3.0292969 8 A 5.500002 5.500015 0 0 0 8 12.972656 L 8 12 L 8 11.96875 A 4.5 4.5 0 0 1 4.0332031 8 L 4 8 L 3.0292969 8 z M 12.96875 8 A 4.5 4.5 0 0 1 9 11.966797 L 9 12 L 9 12.974609 A 5.500002 5.500015 0 0 0 13.972656 8 L 13 8 L 12.96875 8 z "
        class="ColorScheme-Text"
        />
  <path
        style="fill:currentColor;fill-opacity:1;stroke:none"
        d="M 7 1 L 7 4 L 10 4 L 10 1 L 7 1 z M 8 2 L 9 2 L 9 3 L 8 3 L 8 2 z M 2 6 L 2 9 L 5 9 L 5 6 L 2 6 z M 12 6 L 12 9 L 15 9 L 15 6 L 12 6 z M 3 7 L 4 7 L 4 8 L 3 8 L 3 7 z M 13 7 L 14 7 L 14 8 L 13 8 L 13 7 z M 7 11 L 7 14 L 10 14 L 10 11 L 7 11 z M 8 12 L 9 12 L 9 13 L 8 13 L 8 12 z "
        class="ColorScheme-Highlight"
      />
</svg>

<svg xmlns="http://www.w3.org/2000/svg" viewBox="0 0 16 16">
<defs id="defs3051">
<style id="current-color-scheme" type="text/css">
.ColorScheme-Contrast{color:#dedede}.ColorScheme-Highlight{color:#3daee9}
</style>
</defs>
<path d="M8 2.025A5.5 5.5 0 0 0 3.027 7h1.004A4.5 4.5 0 0 1 8 3.033zm1 .002v1.004A4.5 4.5 0 0 1 12.967 7h1.008A5.5 5.5 0 0 0 9 2.027M3.03 8A5.5 5.5 0 0 0 8 12.973v-1.004A4.5 4.5 0 0 1 4.033 8zm9.939 0A4.5 4.5 0 0 1 9 11.967v1.008A5.5 5.5 0 0 0 13.973 8z" class="ColorScheme-Contrast" style="fill:currentColor;fill-opacity:1;stroke:none"/>
<path d="M7 1v3h3V1zm1 1h1v1H8zM2 6v3h3V6zm10 0v3h3V6zM3 7h1v1H3zm10 0h1v1h-1zm-6 4v3h3v-3zm1 1h1v1H8z" class="ColorScheme-Highlight" style="fill:currentColor;fill-opacity:1;stroke:none"/>
</svg>
